packages/kaspersky-hexa-ui-icons/src/iconsSVGs/24/Location.svg

<svg width="24" height="24" viewBox="0 0 24 24" fill="none" xmlns="http://www.w3.org/2000/svg">
<path fill-rule="evenodd" clip-rule="evenodd" d="M18.7214 2.1456C19.9648 1.61742 21.3284 2.71088 21.0378 4.06748L17.3445 21.3067C17.0313 22.7685 15.1178 23.1409 14.279 21.9034L10.1335 15.7862L3.14621 13.38C1.73291 12.8932 1.5934 10.9495 2.92258 10.2657L18.6013 2.20224L18.7214 2.1456ZM4.46848 11.7198L11.1003 14.004C11.2535 14.0568 11.3905 14.1462 11.5007 14.2628L11.6013 14.3878L15.5378 20.1944L18.9489 4.27255L4.46848 11.7198Z" fill="black"/>
</svg>

<svg xmlns="http://www.w3.org/2000/svg" width="24" height="24" fill="none" viewBox="0 0 24 24"><path fill="#000" fill-rule="evenodd" d="M18.7215 2.1456c1.2434-.5282 2.607.5653 2.3164 1.9219l-3.6934 17.2392c-.3131 1.4618-2.2267 1.8342-3.0654.5967l-4.1455-6.1172L3.1463 13.38c-1.4133-.4868-1.5528-2.4305-.2237-3.1143l15.6788-8.0635zm-14.253 9.5742 6.6319 2.2842a1 1 0 0 1 .4004.2588l.1006.125 3.9365 5.8066L18.949 4.2725z"/></svg>
